X: 9
T: The Congress
R: reel
M: 4/4
L: 1/8
K: Ador
|:(3Bcd|eAAG A2 (3Bcd|eaaf gedg|eA A2 EA A2|BAGA BA (3Bcd |
eAAG A2 (3Bcd|eaaf gedB|c3d e3d|cABG A2 (3Bcd:||
|:eaag a3g|eaag e2 dg|e2 dg e2 dg|eaaf gedg|
eaag a3g|eaag e2 dB|c3d e3d|cABG A2 (3Bcd:||


Tune 208	Setting 28760

